x-pack/solutions/observability/plugins/apm/public/components/shared/span_icon/icons/mysql.svg

<svg width="16" height="16" viewBox="0 0 16 16" fill="none" xmlns="http://www.w3.org/2000/svg">
<path d="M14.7281 12.1382C13.8582 12.1165 13.184 12.2036 12.6185 12.4427C12.4554 12.508 12.1944 12.508 12.1727 12.7146C12.2597 12.8016 12.2706 12.943 12.3467 13.0626C12.4773 13.28 12.7055 13.5736 12.9121 13.7259C13.1405 13.8999 13.3689 14.0738 13.608 14.2261C14.0321 14.4871 14.5106 14.6393 14.9238 14.9003C15.1631 15.0524 15.4022 15.2482 15.6414 15.4113C15.7611 15.4982 15.8371 15.6397 15.9894 15.694V15.6614C15.9133 15.5635 15.8915 15.4222 15.8155 15.3134C15.7068 15.2047 15.598 15.1068 15.4892 14.9981C15.1739 14.574 14.7824 14.2043 14.3583 13.8999C14.0104 13.6606 13.2492 13.3344 13.1079 12.9321C13.1079 12.9321 13.0969 12.9212 13.0861 12.9104C13.3253 12.8886 13.608 12.8016 13.8364 12.7364C14.2061 12.6385 14.5432 12.6602 14.9238 12.5624C15.0977 12.5189 15.2718 12.4645 15.4457 12.4101V12.3123C15.2501 12.1165 15.1087 11.8556 14.902 11.6707C14.3475 11.1922 13.7385 10.7247 13.1079 10.3333C12.7707 10.1158 12.3358 9.97438 11.977 9.78959C11.8465 9.72423 11.629 9.6917 11.5529 9.58296C11.3571 9.34372 11.2484 9.02842 11.1071 8.74566C10.7918 8.14754 10.4872 7.48433 10.2154 6.85367C10.0198 6.42956 9.9001 6.00546 9.66086 5.61403C8.54088 3.76549 7.323 2.64551 5.4527 1.54722C5.05036 1.31889 4.57196 1.221 4.06087 1.10142C3.7891 1.0905 3.51719 1.06881 3.24534 1.0579C3.07139 0.981766 2.89736 0.775207 2.7451 0.677315C2.12542 0.285818 0.526896 -0.562254 0.0701855 0.557731C-0.22342 1.26453 0.505136 1.9604 0.755216 2.31929C0.940153 2.56938 1.17932 2.85207 1.30982 3.13483C1.38595 3.31956 1.40764 3.51541 1.48377 3.71112C1.65779 4.18946 1.82083 4.72237 2.04922 5.16824C2.16888 5.39656 2.29931 5.6358 2.45157 5.84235C2.53854 5.96194 2.69073 6.01638 2.72341 6.21209C2.57122 6.42956 2.5603 6.75578 2.47326 7.02762C2.08183 8.25634 2.23409 9.77868 2.78862 10.6812C2.96258 10.953 3.37583 11.5512 3.93037 11.3228C4.41969 11.127 4.31095 10.5072 4.4523 9.96354C4.48498 9.83297 4.46321 9.74606 4.52843 9.65909C4.52849 9.66993 4.52843 9.68085 4.52843 9.68085C4.68069 9.9853 4.83288 10.2789 4.97423 10.5834C5.31135 11.1161 5.8985 11.6707 6.38781 12.0405C6.64888 12.2361 6.85544 12.5732 7.18165 12.6929V12.6602H7.15989C7.09461 12.5623 6.99679 12.5189 6.90981 12.4427C6.71409 12.247 6.49655 12.0078 6.34436 11.7903C5.88772 11.1813 5.4853 10.5072 5.12649 9.81128C4.95253 9.47422 4.80027 9.10448 4.65893 8.76743C4.59364 8.63686 4.59364 8.44121 4.48491 8.376C4.3218 8.61517 4.08263 8.8218 3.96298 9.1154C3.75649 9.58296 3.73466 10.1593 3.65853 10.7573C3.61507 10.7682 3.63677 10.7573 3.615 10.7791C3.2671 10.692 3.14745 10.3333 3.01694 10.0288C2.69073 9.25675 2.63636 8.01711 2.91912 7.12551C2.99525 6.89712 3.32147 6.17948 3.19097 5.96201C3.12575 5.75538 2.90821 5.63579 2.78862 5.47269C2.64728 5.26606 2.49502 5.00513 2.3972 4.77674C2.1362 4.16784 2.0057 3.49365 1.72301 2.88468C1.59251 2.60192 1.36419 2.30838 1.17932 2.04745C0.972761 1.75385 0.74437 1.54722 0.581262 1.19924C0.526961 1.07966 0.450762 0.883943 0.537739 0.753444C0.5595 0.666468 0.602954 0.63386 0.689999 0.612098C0.831344 0.492446 1.23369 0.644706 1.37503 0.709921C1.77737 0.872958 2.11443 1.02529 2.45156 1.25361C2.60375 1.36235 2.76686 1.56898 2.96257 1.62335H3.19096C3.53894 1.69941 3.93036 1.64511 4.25658 1.74293C4.83294 1.92773 5.3548 2.19964 5.82243 2.49325C7.24693 3.39575 8.42122 4.67891 9.21506 6.21209C9.34556 6.4621 9.39986 6.69056 9.51951 6.95149C9.7479 7.48434 10.0306 8.02802 10.2589 8.54995C10.4872 9.06096 10.7047 9.58296 11.0309 10.0071C11.1941 10.2353 11.8465 10.355 12.1401 10.4746C12.3575 10.5724 12.6947 10.6595 12.8904 10.7791C13.26 11.0073 13.6298 11.2684 13.9778 11.5185C14.1518 11.6489 14.6954 11.9208 14.7281 12.1382L14.7281 12.1382Z" fill="#00546B"/>
<path d="M3.63671 2.68896C3.45185 2.68896 3.32142 2.7108 3.19092 2.7434C3.19092 2.74335 3.19092 2.75432 3.19092 2.76516H3.21268C3.29972 2.93912 3.45185 3.05877 3.56058 3.21096C3.64763 3.38491 3.72369 3.55894 3.81074 3.73296C3.82158 3.72204 3.83243 3.7112 3.83243 3.7112C3.98476 3.60239 4.06082 3.42844 4.06082 3.16751C3.99553 3.09138 3.98469 3.01525 3.93032 2.93912C3.8651 2.83031 3.72369 2.77601 3.63671 2.68896Z" fill="#00546B"/>
</svg>

<svg xmlns="http://www.w3.org/2000/svg" width="16" height="16" fill="none"><path fill="#00546B" d="M14.728 12.138c-.87-.021-1.544.066-2.11.305-.163.065-.424.065-.445.272.087.087.098.228.174.348.13.217.359.51.565.663.228.174.457.348.696.5.424.261.903.413 1.316.674.24.152.478.348.717.511.12.087.196.229.348.283v-.033c-.076-.098-.098-.239-.174-.348-.108-.108-.217-.206-.326-.315a5.2 5.2 0 0 0-1.13-1.098c-.349-.24-1.11-.566-1.251-.968l-.022-.022c.24-.021.522-.108.75-.174.37-.098.707-.076 1.088-.174.174-.043.348-.098.522-.152v-.098c-.196-.195-.337-.456-.544-.641a14.5 14.5 0 0 0-1.794-1.338c-.337-.217-.772-.359-1.131-.543-.13-.066-.348-.098-.424-.207-.196-.24-.305-.555-.446-.837a27 27 0 0 1-.892-1.892c-.195-.424-.315-.849-.554-1.24-1.12-1.849-2.338-2.968-4.208-4.067-.403-.228-.881-.326-1.392-.446-.272-.01-.544-.032-.816-.043-.174-.076-.348-.283-.5-.38C2.125.285.527-.563.07.557c-.293.707.435 1.402.685 1.761.185.25.424.533.555.816.076.185.098.38.174.576.174.478.337 1.011.565 1.457.12.229.25.468.403.674.087.12.239.174.271.37-.152.218-.163.544-.25.816-.391 1.228-.239 2.75.316 3.653.174.272.587.87 1.141.642.49-.196.38-.816.522-1.36.033-.13.011-.217.076-.304v.022c.153.304.305.598.446.902.337.533.925 1.088 1.414 1.457.26.196.467.533.794.653v-.033H7.16c-.065-.098-.163-.141-.25-.217a5 5 0 0 1-.566-.653 14 14 0 0 1-1.218-1.979c-.173-.337-.326-.707-.467-1.044-.065-.13-.065-.326-.174-.391-.163.24-.402.446-.522.74-.207.467-.228 1.043-.304 1.641-.044.011-.022 0-.044.022-.348-.087-.468-.446-.598-.75-.326-.772-.38-2.012-.098-2.903.076-.229.402-.947.272-1.164-.065-.207-.283-.326-.402-.49a4.4 4.4 0 0 1-.392-.695c-.26-.61-.391-1.283-.674-1.892-.13-.283-.359-.577-.544-.838-.206-.293-.435-.5-.598-.848C.527 1.08.451.884.538.753.559.666.603.633.69.613c.141-.12.544.032.685.097.402.163.74.315 1.077.544.152.108.315.315.51.37h.229c.348.075.74.021 1.066.119a7 7 0 0 1 1.565.75 9.65 9.65 0 0 1 3.393 3.72c.13.25.185.478.305.738.228.533.51 1.077.739 1.599.228.511.446 1.033.772 1.457.163.228.816.348 1.11.468.216.097.554.184.75.304.369.228.739.49 1.087.74.174.13.717.402.75.62"/><path fill="#00546B" d="M3.637 2.689c-.185 0-.316.022-.446.054v.022h.022c.087.174.239.294.348.446.087.174.163.348.25.522l.021-.022c.153-.109.229-.283.229-.543-.065-.077-.076-.153-.13-.229-.066-.109-.207-.163-.294-.25"/></svg>
